svgs/aurora_services.svg

<svg xmlns="http://www.w3.org/2000/svg" viewBox="0 0 192 192"><path d="m172.911 122.008-15.922 27.6a3.881 3.881 0 0 1-4.854 1.708l-19.844-7.997a59.663 59.663 0 0 1-13.437 7.764l-2.99 21.078a3.883 3.883 0 0 1-3.884 3.339H80.136a3.886 3.886 0 0 1-3.883-3.339l-2.99-21.078a60.843 60.843 0 0 1-13.437-7.764l-19.961 7.997a3.881 3.881 0 0 1-4.854-1.708l-15.922-27.6a3.883 3.883 0 0 1 .971-5.085l16.776-13.159A64.221 64.221 0 0 1 36.292 96c.026-2.596.207-5.189.544-7.764L20.06 75.077a3.883 3.883 0 0 1-.971-5.085l15.922-27.6a3.881 3.881 0 0 1 4.854-1.708l19.844 7.997a59.663 59.663 0 0 1 13.437-7.764l2.99-21.078A3.883 3.883 0 0 1 80.02 16.5h31.844a4.08 4.08 0 0 1 3.883 3.339l2.99 21.078a60.843 60.843 0 0 1 13.437 7.764l19.844-7.997a3.881 3.881 0 0 1 4.855 1.708l15.922 27.6a3.883 3.883 0 0 1-.971 5.085l-16.66 13.159c.338 2.575.52 5.167.544 7.764a64.221 64.221 0 0 1-.544 7.764l16.776 13.159a3.883 3.883 0 0 1 .971 5.085Zm-71.183-45.961a6.565 6.565 0 0 0-11.417 0l-18.99 33.462a6.555 6.555 0 0 0 1.511 8.258 6.564 6.564 0 0 0 4.197 1.524h37.98a6.567 6.567 0 0 0 6.448-5.38 6.56 6.56 0 0 0-.739-4.402ZM88.253 106.17l7.766-13.625 7.767 13.625Z" fill="none" stroke="#000" stroke-width="8" stroke-linecap="round" stroke-linejoin="round"/></svg>

<svg
    xmlns="http://www.w3.org/2000/svg"
    viewBox="0 0 192 192"
    id="vector">
    <path
        id="path"
        d="M 172.911 122.008 L 156.989 149.608 C 156.528 150.436 155.78 151.067 154.886 151.381 C 153.992 151.696 153.013 151.673 152.135 151.316 L 132.291 143.319 C 128.169 146.481 123.652 149.091 118.854 151.083 L 115.864 172.161 C 115.732 173.094 115.265 173.947 114.551 174.561 C 113.836 175.175 112.922 175.509 111.98 175.5 L 80.136 175.5 C 79.194 175.509 78.28 175.175 77.566 174.561 C 76.852 173.947 76.385 173.094 76.253 172.161 L 73.263 151.083 C 68.471 149.079 63.955 146.47 59.826 143.319 L 39.865 151.316 C 38.987 151.673 38.008 151.696 37.114 151.381 C 36.22 151.067 35.472 150.436 35.011 149.608 L 19.089 122.008 C 18.597 121.19 18.423 120.218 18.602 119.28 C 18.781 118.342 19.301 117.503 20.06 116.923 L 36.836 103.764 C 36.498 101.189 36.316 98.596 36.292 96 C 36.318 93.404 36.499 90.811 36.836 88.236 L 20.06 75.077 C 19.301 74.497 18.781 73.658 18.602 72.72 C 18.423 71.782 18.597 70.81 19.089 69.992 L 35.011 42.392 C 35.472 41.564 36.22 40.933 37.114 40.619 C 38.008 40.304 38.987 40.327 39.865 40.684 L 59.709 48.681 C 63.831 45.519 68.348 42.909 73.146 40.917 L 76.136 19.839 C 76.268 18.906 76.735 18.053 77.449 17.439 C 78.164 16.825 79.078 16.491 80.02 16.5 L 111.864 16.5 C 112.795 16.529 113.689 16.877 114.395 17.484 C 115.102 18.091 115.579 18.922 115.747 19.839 L 118.737 40.917 C 123.529 42.921 128.045 45.53 132.174 48.681 L 152.018 40.684 C 152.896 40.327 153.875 40.304 154.769 40.619 C 155.663 40.933 156.412 41.564 156.873 42.392 L 172.795 69.992 C 173.287 70.81 173.46 71.782 173.281 72.72 C 173.102 73.658 172.583 74.497 171.824 75.077 L 155.164 88.236 C 155.502 90.811 155.684 93.403 155.708 96 C 155.684 98.596 155.502 101.189 155.164 103.764 L 171.94 116.923 C 172.699 117.503 173.219 118.342 173.398 119.28 C 173.577 120.218 173.403 121.19 172.911 122.008 Z M 101.728 76.047 C 100.961 74.696 99.739 73.66 98.28 73.125 C 96.821 72.59 95.218 72.59 93.759 73.125 C 92.3 73.66 91.078 74.696 90.311 76.047 L 71.321 109.509 C 70.567 110.844 70.306 112.403 70.582 113.911 C 70.858 115.419 71.654 116.784 72.832 117.767 C 74.01 118.75 75.495 119.289 77.029 119.291 L 115.009 119.291 C 116.543 119.289 118.029 118.75 119.207 117.767 C 120.384 116.784 121.181 115.419 121.457 113.911 C 121.733 112.403 121.471 110.844 120.718 109.509 Z M 88.253 106.17 L 96.019 92.545 L 103.786 106.17 Z"
        fill="none"
        stroke="#000000"
        stroke-width="8"
        stroke-linecap="round"
        stroke-linejoin="round"/>
</svg>
